X: 43659
T: Ølland
R: waltz
M: 3/4
K: Gmajor
AB|:c2 cd cB|A2 AB cd|e2 g2 f2|1 e4 AB:|2 e4 e2||
|:e2> c2 c2|c2 ec eg|f2 d2 d2|d2 d^c df|
e3 dcB|A2>B2 c2|B2 G2 G2|A6:|

